src/assets/filled/Rotate3d.svg

<svg width="24" height="24" viewBox="0 0 24 24"  xmlns="http://www.w3.org/2000/svg">
<path d="M14.9999 22.7502C14.7299 22.7502 14.4799 22.6002 14.3499 22.3702C14.2199 22.1302 14.2199 21.8502 14.3599 21.6102L15.4099 19.8602C15.6199 19.5102 16.0799 19.3902 16.4399 19.6002C16.7999 19.8102 16.9099 20.2702 16.6999 20.6302L16.4299 21.0802C19.1899 20.4302 21.2599 17.9502 21.2599 14.9902C21.2599 14.5802 21.5999 14.2402 22.0099 14.2402C22.4199 14.2402 22.7599 14.5802 22.7599 14.9902C22.7499 19.2702 19.2699 22.7502 14.9999 22.7502Z" />
<path d="M2 9.75C1.59 9.75 1.25 9.41 1.25 9C1.25 4.73 4.73 1.25 9 1.25C9.27 1.25 9.52 1.4 9.65 1.63C9.78 1.87 9.78 2.15 9.64 2.39L8.59 4.14C8.38 4.49 7.92 4.61 7.56 4.39C7.21 4.18 7.09 3.72 7.31 3.36L7.58 2.91C4.81 3.56 2.75 6.04 2.75 9C2.75 9.41 2.41 9.75 2 9.75Z" />
<path d="M16.3999 8.20996L12.6399 6.17996C12.2399 5.96996 11.7699 5.96996 11.3699 6.17996L7.59991 8.20996C7.32991 8.35996 7.15991 8.64996 7.15991 8.96996C7.15991 9.29996 7.32991 9.58996 7.59991 9.73996L11.3599 11.77C11.5599 11.88 11.7799 11.93 11.9999 11.93C12.2199 11.93 12.4399 11.88 12.6399 11.77L16.3999 9.73996C16.6699 9.58996 16.8399 9.29996 16.8399 8.96996C16.8399 8.64996 16.6699 8.35996 16.3999 8.20996Z" />
<path d="M10.74 12.4699L7.24 10.7199C6.97 10.5899 6.66 10.5999 6.4 10.7599C6.15 10.9199 6 11.1899 6 11.4899V14.7999C6 15.3699 6.32 15.8899 6.83 16.1399L10.33 17.8899C10.45 17.9499 10.58 17.9799 10.72 17.9799C10.88 17.9799 11.03 17.9399 11.17 17.8499C11.43 17.6899 11.58 17.4199 11.58 17.1199V13.8099C11.57 13.2399 11.26 12.7299 10.74 12.4699Z" />
<path d="M17.5899 10.7599C17.3299 10.5999 17.0199 10.5899 16.7499 10.7199L13.2499 12.4699C12.7399 12.7299 12.4199 13.2399 12.4199 13.8099V17.1199C12.4199 17.4199 12.5699 17.6899 12.8299 17.8499C12.9699 17.9399 13.1199 17.9799 13.2799 17.9799C13.4099 17.9799 13.5399 17.9499 13.6699 17.8899L17.1699 16.1399C17.6799 15.8799 17.9999 15.3699 17.9999 14.7999V11.4899C17.9999 11.1899 17.8499 10.9199 17.5899 10.7599Z" />
</svg>

<?xml version="1.0" encoding="UTF-8"?>
<svg width="24" height="24" viewBox="0 0 24 24" xmlns="http://www.w3.org/2000/svg">
 <path d="m15 22.75c-0.27 0-0.52-0.15-0.65-0.38-0.13-0.24-0.13-0.52 0.01-0.76l1.05-1.75c0.21-0.35 0.67-0.47 1.03-0.26s0.47 0.67 0.26 1.03l-0.27 0.45c2.76-0.65 4.83-3.13 4.83-6.09 0-0.41 0.34-0.75 0.75-0.75s0.75 0.34 0.75 0.75c-0.01 4.28-3.49 7.76-7.76 7.76z"/>
 <path d="M2 9.75C1.59 9.75 1.25 9.41 1.25 9C1.25 4.73 4.73 1.25 9 1.25C9.27 1.25 9.52 1.4 9.65 1.63C9.78 1.87 9.78 2.15 9.64 2.39L8.59 4.14C8.38 4.49 7.92 4.61 7.56 4.39C7.21 4.18 7.09 3.72 7.31 3.36L7.58 2.91C4.81 3.56 2.75 6.04 2.75 9C2.75 9.41 2.41 9.75 2 9.75Z"/>
 <path d="m16.4 8.21-3.76-2.03c-0.4-0.21-0.87-0.21-1.27 0l-3.77 2.03c-0.27 0.15-0.44 0.44-0.44 0.76 0 0.33 0.17 0.62 0.44 0.77l3.76 2.03c0.2 0.11 0.42 0.16 0.64 0.16s0.44-0.05 0.64-0.16l3.76-2.03c0.27-0.15 0.44-0.44 0.44-0.77 0-0.32-0.17-0.61-0.44-0.76z"/>
 <path d="m10.74 12.47-3.5-1.75c-0.27-0.13-0.58-0.12-0.84 0.04-0.25 0.16-0.4 0.43-0.4 0.73v3.31c0 0.57 0.32 1.09 0.83 1.34l3.5 1.75c0.12 0.06 0.25 0.09 0.39 0.09 0.16 0 0.31-0.04 0.45-0.13 0.26-0.16 0.41-0.43 0.41-0.73v-3.31c-0.01-0.57-0.32-1.08-0.84-1.34z"/>
 <path d="m17.59 10.76c-0.26-0.16-0.57-0.17-0.84-0.04l-3.5 1.75c-0.51 0.26-0.83 0.77-0.83 1.34v3.31c0 0.3 0.15 0.57 0.41 0.73 0.14 0.09 0.29 0.13 0.45 0.13 0.13 0 0.26-0.03 0.39-0.09l3.5-1.75c0.51-0.26 0.83-0.77 0.83-1.34v-3.31c0-0.3-0.15-0.57-0.41-0.73z"/>
</svg>
